X: 32
T: JIG: Castle (Dmin)
C: C: Seán Ryan; S: Martin Hayes
C: Set Leaders: Oliushka, Anton
Z: [Unedited]; Jeff Finkelstein at The Session
N: https://thesession.org/members/26966/sets/95962
R: Jig
M: 6/8
L: 1/8
Q: 3/8=116
K: Dmin
fed edc|dcA GEC|DED AcA|GAc dcA|
fed edc|dcA GEC|DED AcA|1 GEC D3:|2 GEC D2 F||
FED ~d3|edc AGE|CEG cBc|CEG FED|
~F3 ~G3|AGA cde|dcA GEC|1 A,B,C D3:||

